ametion_vv-test/img/icons/social/tiktok.svg

<svg width="57" height="56" viewBox="0 0 57 56" fill="none" xmlns="http://www.w3.org/2000/svg">
<g clip-path="url(#clip0_1_218)">
<rect x="0.00390625" y="-0.000640869" width="55.9994" height="55.9994" fill="#F9F9F9"/>
<path d="M37.0541 21.9328C35.8245 21.9328 34.69 21.5254 33.7789 20.8382C32.734 20.0505 31.9833 18.8949 31.7182 17.563C31.6525 17.2339 31.6172 16.8943 31.6138 16.5463H28.1012V26.1443L28.097 31.4016C28.097 32.8071 27.1818 33.9989 25.913 34.418C25.5448 34.5396 25.1471 34.5973 24.733 34.5745C24.2045 34.5455 23.7092 34.386 23.2787 34.1285C22.3626 33.5806 21.7414 32.5866 21.7246 31.4496C21.6981 29.6725 23.1348 28.2236 24.9106 28.2236C25.2611 28.2236 25.5978 28.2808 25.913 28.3848V25.7614V24.8183C25.5805 24.7691 25.2422 24.7434 24.9001 24.7434C22.9563 24.7434 21.1384 25.5514 19.8389 27.007C18.8567 28.107 18.2676 29.5104 18.1767 30.982C18.0576 32.9153 18.765 34.753 20.1369 36.1088C20.3384 36.3079 20.5501 36.4926 20.7714 36.6631C21.9476 37.5682 23.3856 38.0589 24.9001 38.0589C25.2422 38.0589 25.5805 38.0337 25.913 37.9844C27.3278 37.7749 28.6332 37.1272 29.6633 36.1088C30.9291 34.8578 31.6285 33.1968 31.6361 31.4289L31.618 23.5782C32.2219 24.044 32.8821 24.4295 33.5908 24.7287C34.6929 25.1937 35.8615 25.4294 37.0642 25.4289V22.8784V21.9319C37.0651 21.9328 37.055 21.9328 37.0541 21.9328V21.9328Z" fill="#36BA5F"/>
</g>
<defs>
<clipPath id="clip0_1_218">
<rect x="0.00299072" width="55.9994" height="55.9994" rx="13.3311" fill="white"/>
</clipPath>
</defs>
</svg>

<svg width="57" height="56" fill="none" xmlns="http://www.w3.org/2000/svg"><g clip-path="url(#clip0_1_218)"><path fill="#F9F9F9" d="M.004-.001h55.999v55.999H.004z"/><path d="M37.054 21.933a5.42 5.42 0 01-3.275-1.095 5.432 5.432 0 01-2.165-4.292H28.1v9.598l-.004 5.258a3.179 3.179 0 01-3.364 3.172 3.166 3.166 0 01-1.454-.445 3.18 3.18 0 01-1.554-2.68 3.182 3.182 0 014.188-3.064v-3.567a6.918 6.918 0 00-1.013-.075 6.736 6.736 0 00-5.061 2.264 6.589 6.589 0 00-1.662 3.975 6.58 6.58 0 001.96 5.127 6.737 6.737 0 004.763 1.95c.342 0 .68-.025 1.013-.075a6.712 6.712 0 003.75-1.875 6.576 6.576 0 001.973-4.68l-.018-7.85a8.877 8.877 0 005.446 1.85v-3.497h-.01z" fill="#36BA5F"/></g><defs><clipPath id="clip0_1_218"><rect x=".003" width="55.999" height="55.999" rx="13.331" fill="#fff"/></clipPath></defs></svg>
